!!!!SEGMENT: pl-sa--552-a-ix-32--007_anonim--valz.krn
!!!cenid: 18xx:518
!!!COM: Anonim
!!!COM-rismid: pe30004985
!!!CDT:
!!!CNT:
!!!OTL: Valz
!!!PDT:
!!!AGN: Secular; Waltz
!!!SMS-siglum: PL-SA
!!!SMS-shelfmark: 552/A IX 32
!!!SMS-shelfwork: 007 W
!!!SMS-variant:
!!!SMS-altvar:
!!!NIFC-rismid: 1001069497
!!!system-decoration: {(s1,s2)}
!!!AIN: 1 piano
!!!key:
**kern	**kern
*part1	*part1
*staff2	*staff1
*Ipiano	*Iempty
*I"Piano	*
*I'P-no	*
*clefF4	*clefG2
*k[]	*k[]
*d:	*d:
*M3/8	*M3/8
*>[A,B,B,C,C,B,B,C,C]	*>[A,B,B,C,C,B,B,C,C]
=1	=1
*>A	*>A
*clefG2	*
!	!LO:TX:a:Bi:t=Valz:rj
.	16qqdd\LL
.	16qqee\JJ
8r	16ff\LL
.	16ee\J
!LO:SIC:n=1:s=8f:v	!
!LO:SIC:n=2:s=8d:v	!
8aL 8f 8G/	8ff\
!LO:SIC:n=1:s=8f:v	!
!LO:SIC:n=2:s=8d:v	!
8aJ 8f 8G/	8dd\J
=2	=2
8r	16ee\LL
.	16dd\J
!LO:SIC:n=3:s=8G:v	!
8e 8c 8E/	8ee\
*rep	*
!LO:SIC:n=3:s=8G:v	!
8e 8c 8E/	8cc\J
*Xrep	*
=3	=3
8r	16b\LL
.	16a\
!LO:SIC:n=3:s=8B:v	!
8f 8d 8G/	16b\
.	16g\
*rep	*
!LO:SIC:n=3:s=8B:v	!
8f 8d 8G/	16a\
.	16b\JJ
*Xrep	*
=4	=4
8r	16cc\LL
.	16b\
!LO:SIC:n=3:s=8G:v	!
8e 8c 8E/	16cc\
.	16dd\
*rep	*
!LO:SIC:n=3:s=8G:v	!
8e 8c 8E/	16ee\
.	16cc\JJ
*Xrep	*
!LO:TX:a:t=[segno]:problem:problem=znak segno na kresce taktowej	!LO:TX:a:t=[segno]:problem:problem=znak segno na kresce taktowej
=5||	=5||
*>B	*>B
8r	16dd\LL
.	16ee\
!LO:SIC:n=1:s=8f:v	!
!LO:SIC:n=2:s=8d:v	!
8a 8f 8G/	16ff\
.	16ee\
*rep	*
!LO:SIC:n=1:s=8f:v	!
!LO:SIC:n=2:s=8d:v	!
8a 8f 8G/	16gg\
.	16ff\JJ
*Xrep	*
=6	=6
8r	16ee\LL
.	16dd\J
!LO:SIC:n=3:s=8G:v	!
8e 8c 8E/	8ee\
*rep	*
!LO:SIC:n=3:s=8G:v	!
8e 8c 8E/	8cc\J
*Xrep	*
=7	=7
8r	16b\LL
.	16a\
8f 8d 8B/	16b\
.	16g\
*rep	*
8f 8d 8B/	16a\
.	16b\JJ
*Xrep	*
=8	=8
*clefF4	*
!LO:TX:a:t=P:problem=mixed beam	!
!	!LO:N:vis=4
8c\L	4.cc\
8C/J	.
8r	.
=9:|!|:	=9:|!|:
*>C	*>C
8D\L	4dd\
8d 8B 8G\	.
8dJ 8B 8G\	8gg\
=10	=10
8D\L	16ff#X\LL
.	16ee\J
8d 8A 8F\	8ff#\
8dJ 8A 8F\	8dd\J
=11	=11
*rep	*
8D\L	16dd\LL
.	16ee\
8d 8A 8F\	16ff#X\
.	16gg\
8dJ 8A 8F\	16aa\
.	16ff#\JJ
*Xrep	*
=12	=12
8gL 8c\	8gg\L
8a 8d\	8ffn\
8eJ 8c\	8ee\J
!LO:TX:a:t=[segno]:problem:problem=znak segno na kresce taktowej	!LO:TX:a:t=[segno]:problem:problem=znak segno na kresce taktowej
!	!LO:TX:b:Bi:t=Dall Segno
==	==
*-	*-
!!title: @{OTL};
!!!RDF**kern: > = above
!!!RDF**kern: < = below
!!!EED: Wojciech Jakubiak-Danek
!!!EEV: 2020-12-11
!!!URL-scan: http://bc.bdsandomierz.pl/dlibra/publication/1308/edition/1276/content
!!!ONB-nifc: Str. 4, s. 5.
!!!ENC: Marcin Jachim
!!!END: 2020-06-18
